X:1
T:Scotch -- Hornpipe
R:hornpipe
B:Cole's 1000 Fiddle Tunes
S: Bob Puckette <BobP:at:workcom.com> 2003-3-7
M:2/4
L:1/16
K:D
((3vA,B,C)|kD3.uD .D2(FE)|DFAF .B2.A2|{c}BAFA {c}BAFA|EFED B,D.A,2|
vkD3.uD .D2(FE)|DFAF .B2.A2|{c}BAGA Bcde|faec d2:|
|:vkf3f fgfe|defd .B2.A2|BdAd BdAF|EFED B,D.A,2|
"4".kD3.D .D2(FE)|DFAF .B2.A2|Bdc"4"e dfeg|faec d2:|
